X: 3260
T: CARNIVAL OF VENICE
%R: jig
B: James Kerr "Merry Melodies" v.3 p.29 #2__
Z: 2016 John Chambers <jc:trillian.mit.edu>
M: 6/8
L: 1/8
K: G
ud |\
ve2vd uc2uB | d2c A2B | cBc e2d | B3- B2d |\
e2d c2B | d2c A2B | cBc e2d | G3- G2 :|
|: d |\
dcB BAG | F2A e2d | ^c2d =c2A | B3- B2d |\
dcB BAG | F2A e2d | fed cBA | G3- G2 :|

%%sep 1 1 500
%%sep 1 1 500

